X: 580
T: Bandon Bridge.
T: droi.cio.d-na-bandann.
N:"Moderate." "1st Setting.""Collected from J. O'Neill."
B:O'Neill's 580
Z:transcribed by J.B. Walsh walsh@math.ubc.ca
M:2/4
L:1/16
%Q:75
K:Am
(EG)|(A3d) (cAGE)|(c3e) (d2cd)|e.a2.g .e.d.c.A|(G4 G2)(EG)|
A2d2 cAGE|c3e d2(cd)|(e3c) (dcA^G)|(A4 A2)||
(e^f)|(g3a) (gedB)|c3d (e2AB)|(c3d) cAGE|(G4 G2) (EG)|
A2d2 cAGE|c3e d2(cd)|(e3c) (dcA^G)|(A4 A2)||


